X: 6
T: The Kid On The Mountain
R: slip jig
M: 9/8
L: 1/8
K: Emin
~E3 FEF G2 F| ~E3 BcA BGD| ~E3 FEF G2 A| BAG FAG FED:|
BGB AFD G2 D| GAB dge dBA| BGB AFA G2 A| BAG FAG FED:|
~g3 eBe e2 f|~g3 efg afd| ~g3 eBe g2 a|bag fag fed:|
eB/B/B e2f ~g3|eB/B/B efg afd| eB/B/B e2f g2a|bag fag fed:|
edB dBA G2D|GAB dge dBA|edB dBA G2A|BAG FAG FED:|


Tune 52	Setting 12486

